X:1
T: The Pigges of Rumsey
S: pls1082001  tradtunes 2002-5-24
N: From the Henry Watson Music Library, (in Manchester Central library)
M:4/4
L:1/8
K:G
S: The Manchester manuscript (c.1650) BRm/832Vu51p.91 (Nery Watson Library)
F2D2D2E2|F4EFG2|F2D2D>EF2|E2E2B4|F2D2D2E2|F4EFG2|F2D2dcBA|E2E2B4:||
